svgs/sharp-regular/backward-fast.svg

<svg xmlns="http://www.w3.org/2000/svg" viewBox="0 0 512 512"><!--! Font Awesome Pro 6.6.0 by @fontawesome - https://fontawesome.com License - https://fontawesome.com/license (Commercial License) Copyright 2024 Fonticons, Inc. --><path d="M64 64l0 24 0 134.1L240 97.9 288 64l0 58.8 0 99.4L464 97.9 512 64l0 58.8 0 266.5 0 58.8-48-33.9L288 289.9l0 99.4 0 58.8-48-33.9L64 289.9 64 424l0 24-48 0 0-24 0-168L16 88l0-24 48 0zM240 256l0-99.4L99.2 256 240 355.4l0-99.4zm83.2 0L464 355.4l0-198.7L323.2 256z"/></svg>

<svg xmlns="http://www.w3.org/2000/svg" viewBox="0 0 512 512"><!--! Font Awesome Pro 6.4.2 by @fontawesome - https://fontawesome.com License - https://fontawesome.com/license (Commercial License) Copyright 2023 Fonticons, Inc. --><path d="M64 64V88 222.1L240 97.9 288 64v58.8 99.4L464 97.9 512 64v58.8V389.2 448l-48-33.9L288 289.9v99.4V448l-48-33.9L64 289.9V424v24H16V424 256 88 64H64zM240 256V156.6L99.2 256 240 355.4V256zm83.2 0L464 355.4V156.6L323.2 256z"/></svg>
